!!!OTL: D REKRUTE SIN BRAVI SOLDATE
!!!ARE: Europa, Mitteleuropa, Deutschland; France, Elsass
!!!SCT: E1362
!!!YEM: Copyright 1995, estate of Helmut Schaffrath.
**kern
*ICvox
*Ivox
*M6/8
*k[b-]
*F:
{8c
=1
8a
8a
8a
8g
8g
8g
=2
4.f
4c}
{8c
=3
8b-
8b-
8b-
4a
8a
=4
2g
8r}
{16g
16g
=5
8a
8g
8a
8b-
8a
8b-
=6
4.cc
8dd
8b-}
{8g
=7
8.f
16e
8f
8cc
8b-
8g
=8
2f
8r}
==
!!!AGN: Staende -, Soldaten -, Kriegs - Lied
!!!ONB: ESAC (Essen Associative Code) Database: ERK3
!!!AMT: compound duple
!!!AIN: vox
!!!EED: Helmut Schaffrath
!!!EEV: 1.0
*-
